src/actions/24/music-note-16th.svg

<svg xmlns="http://www.w3.org/2000/svg" viewBox="0 0 24 24">
  <defs id="defs3051">
    <style type="text/css" id="current-color-scheme">
      .ColorScheme-Text {
        color:#2e3440;
      }
      </style>
  </defs><g transform="translate(1,1)">
 <path 
     style="fill:currentColor;fill-opacity:1;stroke:none" 
     d="m 11,3 0,1 0,3 0,1 0,4 0,2.640625 C 10.450691,14.229206 9.7385673,14.001104 9,14 7.3431458,14 6,15.119288 6,16.5 6,17.880712 7.3431458,19 9,19 c 1.656854,0 3,-1.119288 3,-2.5 L 12,12 12,8.0957031 c 1.473938,0.2519592 3.180894,1.3814645 4,2.1485529 L 16,9.5 16,9 16,8.84375 16,5.5 16,4.84375 C 14.788541,3.8472864 12.971189,3 11,3 Z m 1,1.0957031 c 1.132773,0.1936395 2.194743,0.6800469 3,1.2460938 l 0,2.8046875 C 14.137786,7.634143 13.107988,7.23782 12,7.0800781 Z M 9,15 c 1.104569,0 2,0.671573 2,1.5 C 11,17.328427 10.104569,18 9,18 7.8954305,18 7,17.328427 7,16.5 7,15.671573 7.8954305,15 9,15 Z"
	 class="ColorScheme-Text"
     />
</g></svg>

<svg viewBox="0 0 24 24" xmlns="http://www.w3.org/2000/svg">
 <defs>
  <style type="text/css">.ColorScheme-Text {
        color:#2e3440;
      }</style>
 </defs>
 <g transform="translate(1,1)">
  <path class="ColorScheme-Text" d="m11 3v1 3 1 4 2.6406c-0.54931-0.41142-1.2614-0.63952-2-0.64062-1.6569 0-3 1.1193-3 2.5s1.3431 2.5 3 2.5c1.6569 0 3-1.1193 3-2.5v-4.5-3.9043c1.4739 0.25196 3.1809 1.3815 4 2.1486v-0.74426-0.5-0.15625-3.3438-0.65625c-1.2115-0.99646-3.0288-1.8438-5-1.8438zm1 1.0957c1.1328 0.19364 2.1947 0.68005 3 1.2461v2.8047c-0.86221-0.51234-1.892-0.90866-3-1.0664zm-3 10.904c1.1046 0 2 0.67157 2 1.5s-0.89543 1.5-2 1.5c-1.1046 0-2-0.67157-2-1.5s0.89543-1.5 2-1.5z" fill="currentColor"/>
 </g>
</svg>
